X:440
T: Mountain Lark
S: Allan's Irish Fiddler
Z: B.Black
L: 1/8
M: 4/4
R: reel
K: G
gf|eA (3cBA eABA|AFEF G2 ED|EAAB cBcd|efge d2 fg|
eA (3cBA eABA|AFEF G2 ED|EAAB cBcd|efge d2||
Bc|dgfg dg (3gfg|eaga ea (3aga|efge defg|afge d2 Bc|
dgfg dg (3gfg|eaga ea (3aga|efge defg|(3agf ge d2||
